X: 0911
T: DUKE OF REICHSTADT'S MARCH
B: Oliver Ditson "The Boston Collection of Instrumental Music" 1910 p.91 #1
F: http://conquest.imslp.info/files/imglnks/usimg/8/8f/IMSLP175643-PMLP309456-bostoncollection00bost_bw.pdf
%: 2012 John Chambers <jc:trillian.mit.edu>
M: 4/4
L: 1/16
K: D
^GABA |\
d4 ^GABA e4 GABA | f4 f2e2 d4 ^GABA |\
g4 ^GABA f4 GABA | a2^gf edcB A2^GA ^AB^Bc |
d4 ^GABA e4 GABA | f4 f3f g3g^g3g |\
a4 gfed g4 fedc | d4 d3d d4 z4 |\
A2B2c2d2 (^d4e4) | d2e2f2g2 (^g4a4) |
=g4 c'bag f4 bagf | ea^gf edcB A4 A3A |\
A2B2c2d2 (^d4e4) | d2e2f2g2 (^g4a4) |\
G2e^d ec AE F2dc dAFD | A4 A3A A4 ^GABA |
d4 ^GABA e4 GABA | f4f3f g3g^g3g |\
a2=gf edcB A3A B3c | d4d3d d4z4 H|]
K: G
[B2G2][c2A2] [d8B8] [c2A2][B2G2] | [e2c2][f2d2] [g8e8] [f2d2][e2c2] |\
[d4B4] [B3G3][BG] [c2A2][B2G2][A2F2][B2G2] | [c4A4] [A3D3][AD] [A4D4] z4 |\
[B2G2][c2A2] [d8B8] [c2A2][B2G2] | [e2c2][f2d2] [g8e8] [f2d2][e2c2] |\
[d4B4] [g3B3][gB] [a4c4] [f3A3][fA] | [g4B4] [g3B3][gB] [g4B4] ||
B3B |\
E2F2 G4 A2G2F2E2 | ^D4 B4- B2A2G2F2 |\
E2^D2E2F2 G4E4 | [B4F4][B3F3][BF] [B4F4]z4 |\
[B2G2][c2A2] [d8B8] [c2A2][B2G2] | [e2c2][f2d2] [g8e8] [f2d2][e2c2] |\
[d4B4] [g3B3][gB] [a4c4] [f3A3][fA] | [g4B4] [g3B3][gB] "^da Capo"[g4B4] |]

%%sep 1 1 500
%%sep 1 1 500
